assets/svg/music-o.svg

<?xml version="1.0" encoding="UTF-8"?>
<svg width="1000px" height="1000px" viewBox="0 0 1000 1000" version="1.1" xmlns="http://www.w3.org/2000/svg" xmlns:xlink="http://www.w3.org/1999/xlink">
    <!-- Generator: sketchtool 52.4 (67378) - http://www.bohemiancoding.com/sketch -->
    <title>music-o</title>
    <desc>Created with sketchtool.</desc>
    <g id="新版图标" stroke="none" stroke-width="1" fill="none" fill-rule="evenodd">
        <g id="music-o" fill="#323233">
            <g id="圆角-背景音乐-线">
                <path d="M500,888.888889 C285.611111,888.888889 111.111111,714.388889 111.111111,500 C111.111111,285.611111 285.611111,111.111111 500,111.111111 C714.388889,111.111111 888.888889,285.611111 888.888889,500 C888.888889,714.388889 714.388889,888.888889 500,888.888889 M500,55.5555556 C254.555556,55.5555556 55.5555556,254.555556 55.5555556,500 C55.5555556,745.444444 254.555556,944.444444 500,944.444444 C745.444444,944.444444 944.444444,745.444444 944.444444,500 C944.444444,254.555556 745.444444,55.5555556 500,55.5555556 M451.388889,722.222222 L381.944444,722.222222 C355.166667,722.222222 333.333333,700.388889 333.333333,673.611111 C333.333333,646.833333 355.166667,625 381.944444,625 L451.388889,625 C478.166667,625 500,646.833333 500,673.611111 C500,700.388889 478.166667,722.222222 451.388889,722.222222 M657.888889,293 L544.166667,227.388889 C539.888889,224.388889 535,222.222222 529.333333,222.222222 L527.833333,222.222222 L527.777778,222.222222 L526.222222,222.222222 C512.777778,222.222222 502.222222,232.444444 500.611111,245.333333 C500.555556,246 500.333333,246.5 500.277778,247.166667 C500.222222,247.611111 500,248 500,248.444444 L500,582.055556 C485.388889,574.277778 469.055556,569.444444 451.388889,569.444444 L381.944444,569.444444 C324.444444,569.444444 277.777778,616.111111 277.777778,673.611111 C277.777778,731.111111 324.444444,777.777778 381.944444,777.777778 L451.388889,777.777778 C508.888889,777.777778 555.555556,731.111111 555.555556,673.611111 C555.555556,671.222222 555,669 554.833333,666.666667 L555.555556,666.666667 L555.555556,298.111111 L630.111111,341.166667 C634.444444,343.666667 639.222222,344.888889 643.944444,344.888889 C653.555556,344.888889 662.888889,339.888889 668,331 C675.722222,317.722222 671.166667,300.722222 657.888889,293" id="Fill-1"></path>
            </g>
        </g>
    </g>
</svg>

<svg width="1000" height="1000" xmlns="http://www.w3.org/2000/svg"><path d="M500 888.889c-214.389 0-388.889-174.5-388.889-388.889S285.611 111.111 500 111.111 888.889 285.611 888.889 500 714.389 888.889 500 888.889m0-833.333c-245.444 0-444.444 199-444.444 444.444 0 245.444 199 444.444 444.444 444.444 245.444 0 444.444-199 444.444-444.444 0-245.444-199-444.444-444.444-444.444m-48.611 666.666h-69.445c-26.777 0-48.61-21.833-48.61-48.61 0-26.779 21.833-48.612 48.61-48.612h69.445C478.167 625 500 646.833 500 673.611s-21.833 48.611-48.611 48.611M657.889 293l-113.722-65.611c-4.278-3-9.167-5.167-14.834-5.167H526.222c-13.444 0-24 10.222-25.61 23.111-.056.667-.279 1.167-.334 1.834-.056.444-.278.833-.278 1.277v333.612c-14.611-7.778-30.944-12.612-48.611-12.612h-69.445c-57.5 0-104.166 46.667-104.166 104.167s46.666 104.167 104.166 104.167h69.445c57.5 0 104.167-46.667 104.167-104.167 0-2.389-.556-4.611-.723-6.944h.723V298.11l74.555 43.056a27.663 27.663 0 0 0 13.833 3.722c9.612 0 18.945-5 24.056-13.889 7.722-13.278 3.167-30.278-10.111-38" fill="#323233" fill-rule="evenodd"/></svg>
